X: 122002
T: The BAG OF PRATIES
P: Same figure.
%R: reel
B: James Kerr "Merry Melodies" v.1 p.22 s.0 #2
Z: 2017 John Chambers <jc:trillian.mit.edu>
M: C
L: 1/8
K: D
|:\
dddd d2(AB) | =cccc B2A2 |\
dddd dAAF | AFEF D2D2 :|\
B2(AF) AFED | B2(AF) A2A2 |
B2(AF) AFED | EDEF D2D2 |\
B2(AF) AFED | B2(AF) A2A2 |\
B2(AF) AFED | EDEF D2D2 |]

%%sep 1 1 500
%%sep 1 1 500

